X:154
T:Charles Street Walk THO3.154
O:England;London
M:C|
L:1/8
Z:vmp. Peter Dunk 2011.from a transcription by Fynn Titford-Mock 2006-9
B:Thompson's Compleat Collection of 200 Favourite Country Dances Vol. III.1765-72
Q:1/2=80
K:A
aefe aecA|fgaf Tf2e2|aecA fdBd|ceFG A2-[A2A,2]:|
|:EBGB EcAc|Ecde Tc2B2|aecA fdBd|ceFG A2-[A2A,2]:|

